static/images/inbox-illustration.svg

<svg fill="none" height="40" viewBox="0 0 40 40" width="40" xmlns="http://www.w3.org/2000/svg"><path d="m3.75 22.5h6.4333c.6964.0002 1.3789.1942 1.9712.5604.5922.3662 1.0708.8901 1.3822 1.5129l.4266.8534c.3115.6231.7904 1.1471 1.383 1.5133.5925.3662 1.2754.5601 1.972.56h5.3634c.6966.0001 1.3795-.1938 1.972-.56.5926-.3662 1.0715-.8902 1.383-1.5133l.4266-.8534c.3115-.6231.7904-1.1471 1.383-1.5133.5925-.3662 1.2754-.5601 1.972-.56h6.4317m-32.5.5633v6.9367c0 .9946.39509 1.9484 1.09835 2.6517.70326.7032 1.65709 1.0983 2.65165 1.0983h25c.9946 0 1.9484-.3951 2.6517-1.0983.7032-.7033 1.0983-1.6571 1.0983-2.6517v-6.9367c0-.3733-.0567-.745-.1667-1.1016l-4.0166-13.06503c-.2359-.76627-.7112-1.43675-1.3561-1.91309-.6449-.47633-1.4255-.73343-2.2273-.73358h-16.965c-.8017.00015-1.58232.25725-2.22723.73358-.64491.47634-1.12018 1.14682-1.35607 1.91309l-4.01833 13.06503c-.11011.3568-.16628.7282-.16667 1.1016z" fill="#e9f0fa"/><path d="m3.75 22.5h6.4333c.6964.0002 1.3789.1942 1.9712.5604.5922.3662 1.0708.8901 1.3822 1.5129l.4266.8534c.3115.6231.7904 1.1471 1.383 1.5133.5925.3662 1.2754.5601 1.972.56h5.3634c.6966.0001 1.3795-.1938 1.972-.56.5926-.3662 1.0715-.8902 1.383-1.5133l.4266-.8534c.3115-.6231.7904-1.1471 1.383-1.5133.5925-.3662 1.2754-.5601 1.972-.56h6.4317m-32.5.5633v6.9367c0 .9946.39509 1.9484 1.09835 2.6517.70326.7032 1.65709 1.0983 2.65165 1.0983h25c.9946 0 1.9484-.3951 2.6517-1.0983.7032-.7033 1.0983-1.6571 1.0983-2.6517v-6.9367c0-.3733-.0567-.745-.1667-1.1016l-4.0166-13.06503c-.2359-.76627-.7112-1.43675-1.3561-1.91309-.6449-.47633-1.4255-.73343-2.2273-.73358h-16.965c-.8017.00015-1.58232.25725-2.22723.73358-.64491.47634-1.12018 1.14682-1.35607 1.91309l-4.01833 13.06503c-.11011.3568-.16628.7282-.16667 1.1016z" stroke="#1e64c8" stroke-linecap="round" stroke-linejoin="round"/></svg>

<svg width="40" height="40" viewBox="0 0 40 40" fill="none" xmlns="http://www.w3.org/2000/svg">
<path d="M3.75 22.5H10.1833C10.8797 22.5002 11.5622 22.6942 12.1545 23.0604C12.7467 23.4266 13.2253 23.9505 13.5367 24.5733L13.9633 25.4267C14.2748 26.0498 14.7537 26.5738 15.3463 26.94C15.9388 27.3062 16.6217 27.5001 17.3183 27.5H22.6817C23.3783 27.5001 24.0612 27.3062 24.6537 26.94C25.2463 26.5738 25.7252 26.0498 26.0367 25.4267L26.4633 24.5733C26.7748 23.9502 27.2537 23.4262 27.8463 23.06C28.4388 22.6938 29.1217 22.4999 29.8183 22.5H36.25M3.75 23.0633V30C3.75 30.9946 4.14509 31.9484 4.84835 32.6517C5.55161 33.3549 6.50544 33.75 7.5 33.75H32.5C33.4946 33.75 34.4484 33.3549 35.1517 32.6517C35.8549 31.9484 36.25 30.9946 36.25 30V23.0633C36.25 22.69 36.1933 22.3183 36.0833 21.9617L32.0667 8.89667C31.8308 8.1304 31.3555 7.45992 30.7106 6.98358C30.0657 6.50725 29.2851 6.25015 28.4833 6.25H11.5183C10.7166 6.25015 9.93598 6.50725 9.29107 6.98358C8.64616 7.45992 8.17089 8.1304 7.935 8.89667L3.91667 21.9617C3.80656 22.3185 3.75039 22.6899 3.75 23.0633Z" fill="#E9F0FA"/>
<path d="M3.75 22.5H10.1833C10.8797 22.5002 11.5622 22.6942 12.1545 23.0604C12.7467 23.4266 13.2253 23.9505 13.5367 24.5733L13.9633 25.4267C14.2748 26.0498 14.7537 26.5738 15.3463 26.94C15.9388 27.3062 16.6217 27.5001 17.3183 27.5H22.6817C23.3783 27.5001 24.0612 27.3062 24.6537 26.94C25.2463 26.5738 25.7252 26.0498 26.0367 25.4267L26.4633 24.5733C26.7748 23.9502 27.2537 23.4262 27.8463 23.06C28.4388 22.6938 29.1217 22.4999 29.8183 22.5H36.25M3.75 23.0633V30C3.75 30.9946 4.14509 31.9484 4.84835 32.6517C5.55161 33.3549 6.50544 33.75 7.5 33.75H32.5C33.4946 33.75 34.4484 33.3549 35.1517 32.6517C35.8549 31.9484 36.25 30.9946 36.25 30V23.0633C36.25 22.69 36.1933 22.3183 36.0833 21.9617L32.0667 8.89667C31.8308 8.1304 31.3555 7.45992 30.7106 6.98358C30.0657 6.50725 29.2851 6.25015 28.4833 6.25H11.5183C10.7166 6.25015 9.93598 6.50725 9.29107 6.98358C8.64616 7.45992 8.17089 8.1304 7.935 8.89667L3.91667 21.9617C3.80656 22.3185 3.75039 22.6899 3.75 23.0633Z" stroke="#1E64C8" stroke-linecap="round" stroke-linejoin="round"/>
</svg>
